X:53
T:Reel de Saint Sim\'eon
M:4/4
L:1/8
K:D
a2fd Adfd | a^gab aaga | g2ec Acef | gfga ggfg |
a2fd Adfd | a^gab aaga | g2ec Acef | gfef d4 ::
A2f2 fAdf | dGBd g3g | A2e2 eAce | defg a3a |
A2f2 fAdf | dGBd g3g | A2e2 eece | dfec d3d ::
gab afde | fdfd addf | efga bagf | gege ggga |
fgab afde | fdfd addc | BBBc Acef | gfef d4 :|

